src/assets/icons/sort-numeric-down.svg

<svg width="14" height="14" viewBox="0 0 14 14" fill="none" xmlns="http://www.w3.org/2000/svg">
<g id="sort-numeric-down">
<g clip-path="url(#clip0_156_4667)">
<g id="Vector">
<path d="M5.61795 10.5849L4.51601 11.6868V0.677419C4.51601 0.303484 4.21253 0 3.83859 0C3.46466 0 3.16118 0.303484 3.16118 0.677419V11.6868L2.05924 10.5849C1.7946 10.3203 1.36556 10.3203 1.10092 10.5849C0.836274 10.8495 0.836274 11.2786 1.10092 11.5432L3.35898 13.8013C3.42131 13.8636 3.49627 13.9133 3.57847 13.9476C3.66156 13.9819 3.74918 14 3.83769 14C3.92621 14 4.01382 13.9819 4.09692 13.9476C4.18002 13.9133 4.25408 13.8636 4.3164 13.8013L6.57447 11.5432C6.83911 11.2786 6.83911 10.8495 6.57447 10.5849C6.30982 10.3203 5.8826 10.3203 5.61795 10.5849Z" fill="black"/>
<path d="M10.49 2.17318L10.8395 1.97989V5.64518C10.8395 6.01911 11.143 6.3226 11.517 6.3226C11.8909 6.3226 12.1944 6.01911 12.1944 5.64518V1.63034C12.1944 1.15976 11.9397 0.747887 11.5296 0.556403C11.1665 0.386596 10.7501 0.426338 10.425 0.661176L9.83425 0.988145C9.50729 1.16879 9.38896 1.58156 9.56961 1.90943C9.74935 2.23369 10.1585 2.35473 10.49 2.17318Z" fill="black"/>
<path fill-rule="evenodd" clip-rule="evenodd" d="M9.03213 9.70968C9.03213 8.58968 9.94439 7.67742 11.0644 7.67742C12.1844 7.67742 13.0966 8.58877 13.0975 9.70968V10.1613C13.0975 10.5677 13.0975 10.9028 13.0822 11.1883C13.0154 12.4898 11.8999 13.5484 10.5956 13.5484H10.1621C9.78813 13.5484 9.48464 13.2449 9.48464 12.871C9.48464 12.497 9.78813 12.1935 10.1621 12.1935H10.5956C10.9659 12.1935 11.2956 11.984 11.5052 11.6905C11.3625 11.7221 11.2161 11.7419 11.0644 11.7419C9.94439 11.7419 9.03213 10.8297 9.03213 9.70968ZM11.0644 9.03226C10.6914 9.03226 10.387 9.33665 10.387 9.70968C10.387 10.0827 10.6914 10.3871 11.0644 10.3871C11.4374 10.3871 11.7418 10.0827 11.7418 9.70968C11.7418 9.33665 11.4374 9.03226 11.0644 9.03226Z" fill="black"/>
</g>
</g>
</g>
<defs>
<clipPath id="clip0_156_4667">
<rect width="14" height="14" fill="white"/>
</clipPath>
</defs>
</svg>

<svg xmlns="http://www.w3.org/2000/svg" fill="none" viewBox="0 0 14 14"><g fill="#000" clip-path="url(#a)"><path d="m5.618 10.585-1.102 1.102V.677a.678.678 0 0 0-1.355 0v11.01L2.06 10.585a.678.678 0 0 0-.958.958l2.258 2.258a.68.68 0 0 0 .738.147.7.7 0 0 0 .22-.147l2.257-2.258a.678.678 0 0 0-.956-.958M10.49 2.173l.35-.193v3.665a.678.678 0 0 0 1.354 0V1.63c0-.47-.254-.882-.664-1.074-.364-.17-.78-.13-1.105.105l-.59.327a.678.678 0 0 0 .656 1.185"/><path fill-rule="evenodd" d="M9.032 9.71c0-1.12.912-2.033 2.032-2.033s2.033.912 2.034 2.033v.451c0 .407 0 .742-.016 1.027-.067 1.302-1.182 2.36-2.486 2.36h-.434a.678.678 0 0 1 0-1.354h.434c.37 0 .7-.21.91-.504a2 2 0 0 1-.442.052A2.035 2.035 0 0 1 9.032 9.71m2.032-.678a.68.68 0 0 0-.677.678c0 .373.304.677.677.677a.68.68 0 0 0 .678-.677.68.68 0 0 0-.678-.678" clip-rule="evenodd"/></g><defs><clipPath id="a"><path fill="#fff" d="M0 0h14v14H0z"/></clipPath></defs></svg>
